material/.icons/material/file-music-outline.svg

<svg xmlns="http://www.w3.org/2000/svg" viewBox="0 0 24 24"><path d="M14 2l6 6v12a2 2 0 01-2 2H6a2 2 0 01-2-2V4a2 2 0 012-2h8m4 18V9h-5V4H6v16h12m-5-10v2h-2v5a2 2 0 01-2 2 2 2 0 01-2-2 2 2 0 012-2c.4 0 .7.1 1 .3V10h3z"/></svg>

<?xml version="1.0" encoding="UTF-8"?><!DOCTYPE svg PUBLIC "-//W3C//DTD SVG 1.1//EN" "http://www.w3.org/Graphics/SVG/1.1/DTD/svg11.dtd"><svg xmlns="http://www.w3.org/2000/svg" xmlns:xlink="http://www.w3.org/1999/xlink" version="1.1" id="mdi-file-music-outline" width="24" height="24" viewBox="0 0 24 24"><path d="M14,2L20,8V20A2,2 0 0,1 18,22H6A2,2 0 0,1 4,20V4A2,2 0 0,1 6,2H14M18,20V9H13V4H6V20H18M13,10V12H11V17A2,2 0 0,1 9,19A2,2 0 0,1 7,17A2,2 0 0,1 9,15C9.4,15 9.7,15.1 10,15.3V10H13Z" /></svg>
